X: 1
T: Gentle Cedar
C: Mike Briggs 2011
R: strathspey
Z: 2011 John Chambers <jc:trillian.mit.edu>
M: C
L: 1/8
K: G
G>A |\
"G"B<d d>e d>B A>G | "C"E<G G>A "G"B2 d>e |\
"C"g<g g>e "D"d>B A>G | "A7"A<d d>e "D7"d2 ||
e>f |\
"G"g2 g>e dB AG | "C"e2 e>f "Edim"g2 f>e |\
"G"d<d d>e d>B A>G | "C"E<G G>A "G"G2 :|
|: B2 |\
"Em"g2 g2 "B7"f<e "Em"e2 | B2 e2 "B7"f<e "Em"e2 |\
"Em"B2 B2 "B7"A<G "Em"G2 | "A7"A2 A>B "D7"A2 ||
G>A |\
"G"B<d d>e d>B A>G | "C"E<G G>A "G"B2 d>e |\
"C"g<g g>e "G"d>B A>G | "C"E<G G>A "G"G2 :|
